X:13
T:Rakes of Adair. Ru1.013, The
%%VWML:RutherfordVol1-2248-p7-0p7
Z:Transcription by Village Music Project, Steve Mansfield July 2015
F:http://www.village-music-project.org.uk/
F:http://www.vwml.org/record/RutherfordVol1/2248/p7
L:1/8
W:Foot it and cast off two Cu. .| Foot it and cast
W:Up again :| Cross over Lead through the
W:Bottom .|. Right Hand and Left with the
W:Top Couple :|
Q:3/8=90
K:G
|:G3 g3 | fef g2d | ece dBG | (A/B/c)B AGF |
G3 g3 | fef a2g | fdf ed^c | d3 D3 :|
|: d2d dcB | c3 B3 | ABc cBA | B3 Adc |
BGB AGF | Ggf gfe | dcB AGF | G3 G3 :|
T:We are all right at Canterbury. Ru1.014
B:Rutherford's Country Dances Vol 1, 1756
Z:village music project, Steve Mansfield July 2015
M:C|
L:1/8
W:The first Cu. turns Three with the 2d Wo. .| The same
W:To the Man :| Cross over two Cu. Lead up to the
W:Top Foot it and cast off .|. Lead through the Bottom
W:Cu. cast up right Hand and Left with the Top :|
Q:2/4=80
K:D
|:defd g2fe | defd ecBA | dfeg fafd | Adce d4 :|
|: daga bgfg | egfg afef | dfef gagf | edcB A2A2 |
defd g2fe | defd ecBA | dfeg fafd | Adce d4 :|
